Sources/FrostedUI/Resources/Icons.xcassets/cursorOutline20.imageset/cursor-outline-20.svg

<svg width="20" height="20" viewBox="0 0 20 20" fill="none" xmlns="http://www.w3.org/2000/svg" data-fui-icon="true">
  <path
    d="M2.28731 4.14917C1.8771 2.99232 2.99232 1.8771 4.14917 2.28731L17.3386 6.96422C18.5962 7.41015 18.6441 9.17087 17.4127 9.68462L13.4148 11.3524L16.7604 14.698C17.3299 15.2675 17.3299 16.1909 16.7604 16.7604C16.1909 17.3299 15.2675 17.3299 14.698 16.7604L11.3524 13.4148L9.68463 17.4127C9.17088 18.6441 7.41015 18.5962 6.96422 17.3386L2.28731 4.14917Z"
    stroke="currentColor"
    stroke-width="1.5"
    stroke-linejoin="round"
  />
</svg>

<svg xmlns="http://www.w3.org/2000/svg" width="20" height="20" fill="none" data-fui-icon="true" viewBox="0 0 20 20"><path stroke="currentColor" stroke-linejoin="round" stroke-width="1.5" d="M2.287 4.15c-.41-1.158.705-2.273 1.862-1.863l13.19 4.677c1.257.446 1.305 2.207.074 2.72l-3.998 1.668 3.345 3.346a1.458 1.458 0 0 1-2.062 2.062l-3.346-3.345-1.667 3.998c-.514 1.231-2.275 1.183-2.72-.074z"/></svg>
